X:179
T:Delvine Side
R:Strathspey
B:The Athole Collection
M:C
L:1/8
K:E Minor
B,|:E>e d/^c/B/A/ B<E B>A|B<E e/^c/B/A/ d>DA>F|E>e d/^c/B/A/ B<E B>e|
(3fdf (3e^ce d<D A>F:|
d>EB>E d>EB>e|d>EB>E d>BA>F|d>EB>E d>EB>e|(3fdf (3e^ce d<D A>F|
dEBE d>EB>e|d>EB>E d>BA>F|E>FG>A B>^cd>e|(3fbf (3ege (3d^cB (3AGF||

